src/24/panel/hexchat-indicator.svg

<svg xmlns="http://www.w3.org/2000/svg" width="24" height="24" version="1.1">
 <defs>
  <style id="current-color-scheme" type="text/css">
   .ColorScheme-Text { color:#dfdfdf; } .ColorScheme-Highlight { color:#4285f4; }
  </style>
 </defs>
 <g>
  <path style="fill:currentColor" class="ColorScheme-Text" d="M 7.5085981,5.0004733 C 7.1489137,5.0001918 6.8163031,5.18985 6.6356835,5.4982188 L 3.1362503,11.497381 c -0.1816671,0.310332 -0.1816671,0.693379 0,1.003711 L 6.6356835,18.4999 C 6.8162125,18.808405 7.1488401,19.000208 7.5085981,19 l 6.9868599,0 c 0.359125,-4.18e-4 0.690932,-0.192137 0.871143,-0.5001 l 3.497327,-5.998808 c 0.181667,-0.310332 0.181667,-0.693379 0,-1.003711 L 15.366601,5.4982188 C 15.186299,5.1903924 14.85451,5.0008176 14.495458,5.0004733 Z m 6.1142639,1.9996264 c 0.257517,-1.037e-4 0.497396,0.1235124 0.636618,0.3280657 l 0,0.00195 L 11.001993,10.58548 7.744859,7.3279925 C 7.877544,7.1325547 8.1025553,7.0102056 8.3481762,6.999941 Z M 6.6708268,9.0817744 9.5882181,11.999166 6.6708268,14.916911 5.104611,12.358747 c -0.1369379,-0.222096 -0.1369379,-0.496535 0,-0.718631 L 6.6707205,9.0819869 Z m 8.6625442,0 1.566109,2.5581286 c 0.136938,0.222096 0.136938,0.496535 0,0.718631 l -1.566216,2.558519 -2.917391,-2.917746 2.917391,-2.9173909 z m -4.331272,4.3312726 3.255362,3.255362 c -0.138354,0.20474 -0.377422,0.329058 -0.634635,0.330018 l -5.2413841,0 c -0.2575141,1.07e-4 -0.497393,-0.123504 -0.6366183,-0.328052 l 3.2571334,-3.257488 z"/>
 </g>
</svg>

<svg xmlns="http://www.w3.org/2000/svg" width="24" height="24"><defs><style id="current-color-scheme" type="text/css">.ColorScheme-Text{color:#dfdfdf;}.ColorScheme-Highlight{color:#5294e2;}</style></defs><defs><style id="current-color-scheme" type="text/css"></style></defs><path d="M7.509 5c-.36 0-.693.19-.873.498l-3.5 6a.992.992 0 0 0 0 1.003l3.5 5.999c.18.308.513.5.873.5h6.986c.36 0 .691-.192.872-.5l3.497-5.999a.992.992 0 0 0 0-1.004l-3.497-5.999A1.01 1.01 0 0 0 14.495 5zm6.114 2c.257 0 .497.124.636.328v.002l-3.257 3.255-3.257-3.257A.766.766 0 0 1 8.348 7zM6.67 9.082l2.917 2.917-2.917 2.918-1.566-2.558a.68.68 0 0 1 0-.719L6.67 9.082zm8.662 0L16.9 11.64a.68.68 0 0 1 0 .719l-1.566 2.558L12.416 12l2.917-2.917zm-4.33 4.331l3.254 3.255a.768.768 0 0 1-.634.33H8.38a.768.768 0 0 1-.636-.328l3.257-3.257z" fill="currentColor" class="ColorScheme-Text"/></svg>
